symbols/web/crop_square/materialsymbolsrounded/crop_square_wght600gradN25fill1_20px.svg

<svg xmlns="http://www.w3.org/2000/svg" height="20" width="20"><path d="M4.479 17.708q-.917 0-1.552-.635t-.635-1.552V4.479q0-.917.635-1.552t1.552-.635h11.042q.917 0 1.552.635t.635 1.552v11.042q0 .917-.635 1.552t-1.552.635Z"/></svg>

<svg xmlns="http://www.w3.org/2000/svg" height="20" width="20"><path d="M4.479 17.708Q3.562 17.708 2.927 17.073Q2.292 16.438 2.292 15.521V4.479Q2.292 3.562 2.927 2.927Q3.562 2.292 4.479 2.292H15.521Q16.438 2.292 17.073 2.927Q17.708 3.562 17.708 4.479V15.521Q17.708 16.438 17.073 17.073Q16.438 17.708 15.521 17.708Z"/></svg>
